icons/desktop/12/svg/add-12.svg

<svg width="12" height="12" viewBox="0 0 12 12" fill="none" xmlns="http://www.w3.org/2000/svg">
<path d="M6 2C6.34518 2 6.625 2.27982 6.625 2.625V5.375H9.375C9.72018 5.375 10 5.65482 10 6C10 6.34518 9.72018 6.625 9.375 6.625H6.625V9.375C6.625 9.72018 6.34518 10 6 10C5.65482 10 5.375 9.72018 5.375 9.375V6.625H2.625C2.27982 6.625 2 6.34518 2 6C2 5.65482 2.27982 5.375 2.625 5.375H5.375V2.625C5.375 2.27982 5.65482 2 6 2Z" fill="black"/>
</svg>

<!-- This Source Code Form is subject to the terms of the Mozilla Public
   - License, v. 2.0. If a copy of the MPL was not distributed with this
   - file, You can obtain one at http://mozilla.org/MPL/2.0/. -->
<svg xmlns="http://www.w3.org/2000/svg" width="12" height="12" fill="context-fill" fill-opacity="context-fill-opacity" viewBox="0 0 12 12">
    <path d="M6 2c.345 0 .625.28.625.625v2.75h2.75a.625.625 0 1 1 0 1.25h-2.75v2.75a.625.625 0 1 1-1.25 0v-2.75h-2.75a.625.625 0 1 1 0-1.25h2.75v-2.75C5.375 2.28 5.655 2 6 2" />
</svg>
